X:15025
T:One Time In My Youth
T:En Gång I Min Ungdom
T:Smedsvisa från Uppland
R:Quintuple
C:Trad.
O:Sweden; Uppland
Z:Paul Hardy's Session Tunebook 2022 (see www.paulhardy.net). Creative Commons cc by-nc-sa licenced.
M:5/2
L:1/4
Q:1/2=75
K:C
%%MIDI beatstring fmpfm
%%MIDI gchord cfcfcfcfcf
"C" c2 G G/F/ E c "F" A A/G/ A2|c2 A A/c/"G" B B/d/ "Am" c B/A/"G7" G2|"C" c2 G G/F/ E c "F" A A/G/ A2|c2 A A/c/"G7" B B/d/ "C" c2- c2||
"C" e2 c c/d/ e c "G" d d/B/ G2|"F" A2 F F/G/ A F "Em" G G/E/"C" C2|"C" c2 G G/F/ E c "F" A A/G/ A2|c2 A A/c/"G7" B B/d/ "C" c2- c2|]

